X: 1
T: Khotinskaya
R: freilach
Z: 2018 John Chambers <jc:trillian.mit.edu>
M: 2/4
L: 1/16
K: D
|:\
dddd e2d2 | g2f2 e2d2 | fdfa g2e2 |1,3 g2f2 e2d2 :|2,4 d8 :|
|:\
g2g2 d4 | gfgf e4 | gfag fegf | edfe [1,3 d2(3def :| d2z2 :|
a8 | a8 | a4 a4 | a4 a4 ||\
a2d2 a4 | aggf a4 |
a2d2 a4 | aggf a4 ||\
g2d2 g4 | a2=f2 e2d2 | =fffa ggga | d8 |]
